X:1
L:1/8
M:3/4
K:G
 G4 Bd | c2 Ac B2 | g2 d4 | c2 Ac B2 | g2 d4 | edcBAG | ABcABG | A6 :: d4 fa | g2 dg f2 | 
 a2 c2 cB | Tc4 B2 |""^O)"" d2 gdbd | c2 Ac B2 |""^O)"" d2 gdbd | c2 Ac B2 | AcBAGF | G6 :|
